svg/u1f415_200d_1f9ba.svg

<svg viewBox="0 0 128 128" xmlns="http://www.w3.org/2000/svg">
  <path d="M34.86,78.18c0,0,0.74,27.05-1.18,29.71s-4.1,3.98-3.7,6.21c0.3,1.63,1.53,1.68,5.81,1.68 s6.01-2.27,7.05-5.22c1.03-2.96,1.43-6.75,1.87-11.63c0.4-4.42,1.08-15.87,1.08-15.87L34.86,78.18z" fill="#865A52"/>
  <path d="M78.02,74.78c0,0-0.25,7.14,1.03,10.79c0.95,2.69,3.55,9.02,2.96,12.71 c-0.59,3.7-2.44,7.49-4.58,8.87c-1.38,0.89-1.97,3.25-1.38,4.24s8.87,0.89,10.05,0.1c1.18-0.79,4.9-9.98,5.52-12.52 c1.08-4.43,3.45-17.34,3.45-17.34l-3.74-12.52L78.02,74.78z" fill="#865A52"/>
  <path d="M41.96,36.79l-11.53,5.03l-4.34,16.01c0,0,2.37,8.23,3.74,12.07c0.9,2.5,2.32,9.26,8.77,13.8 c6.06,4.26,14.49,4.04,14.49,4.04s0.57,2.36,0.69,10.35c0.13,8.82,0.36,13.59-0.2,14.29c-0.82,1.04-4.04,5.42-2.96,6.9 s4.14,1.77,6.41,1.48s4.34-1.58,4.83-2.27c0.49-0.69,1.74-15.07,1.97-18.82c0.25-4.09,0.3-9.95,0.39-12.22 c0.06-1.38,0.1-2.76,0.1-2.76s3.18-0.94,7-3.25c3.09-1.88,6.21-4.34,9.26-5.22c3.05-0.89,6.21-1.58,6.21-1.58s3.5,7.24,6.65,10.89 s10.3,11.19,10.79,13.06c0.49,1.87,1.58,8.57,0.49,11.23c-1.08,2.66-2.76,5.03-1.68,6.21c1.08,1.18,6.75,1.13,8.43-0.34 c1.68-1.48,2.91-6.16,2.81-10.1c-0.1-3.94-1.08-11.43-1.68-13.5s-0.99-11.53-0.99-11.53l-2.76-21.38l-4.73-7.59l-22.07-0.69 l-31.44-2.17L41.96,36.79z" fill="#F1A058"/>
  <polygon fill="#02BFF1" points="111.58,19.27 75.66,35.16 77.65,40.19 114.58,24.37 "/>
  <path d="M69.94,43.98c1.87-1.77,1.58-3.15,2.07-3.55c0.49-0.39,1.53,1.38,3.45,0.64 c1.21-0.46,2.12-1.82,1.28-3.84c-0.38-0.91-1.63-2.07-3.1-1.58c-2.4,0.8-1.92,2.61-2.51,2.91s-2.37-1.77-5.03-0.1 c-1.84,1.16,0.2,6.01,0.2,6.01L69.94,43.98z" fill="#BDBDBF"/>
  <path d="M24.71,18.56c0,0,2.95-11.73,4.93-11.83c1.97-0.1,3.15,6.31,4.53,11.83 C34.89,21.45,24.71,18.56,24.71,18.56z" fill="#875A51"/>
  <linearGradient id="SVGID_1_" gradientUnits="userSpaceOnUse" x1="76.048" x2="87.749" y1="85.85" y2="36.7709">
    <stop offset="0.2583" stop-color="#CA8E53"/>
    <stop offset="0.4555" stop-color="#A67352"/>
    <stop offset="0.6284" stop-color="#8E6151"/>
    <stop offset="0.7343" stop-color="#855A51"/>
  </linearGradient>
  <path d="M64.33,77.74c0,0,8.19-3.5,12.02-6.75c4.53-3.84,9.76-13.21,16.56-16.06 c4.27-1.79,7.98-2.56,8.87-2.17s4.53,3.05,5.42,7.39s0.59,17.05,0.79,20.3c0.2,3.25,1.82,10.25,4.88,12.37 c2.09,1.45,6.26,2.91,9.71,2.71c3.45-0.2,4.73-0.39,4.73-0.79c0-0.39-2.86-2.12-5.81-5.32c-3.55-3.84-6.31-15.23-7.39-20.25 c-1.08-5.03-5.32-15.03-10.45-19.96s-15.27-6.8-23.55-7c-5.34-0.13-19.22,2.96-19.22,2.96l-9.16-4.04c0,0-1.97-4.04-4.43-7.98 s-5.52-8.18-5.52-8.18l-6.01,6.5c0,0,1.18,6.8,1.77,9.26c0.59,2.46,1.58,7.39,4.04,10.84s4.04,6.31,4.04,6.31l-17.74,6.21l0.79,2.37 c0,0,8.87-2.32,12.12-3.05c2.8-0.64,8.33-2.46,9.21-2.27c0.89,0.2,3.25,1.81,4.93,3.45c2.27,2.22,6.66,7.28,7.64,8.43 C64.28,75.03,64.33,77.74,64.33,77.74z" fill="url(#SVGID_1_)"/>
  <radialGradient id="SVGID_2_" cx="29.761" cy="14.5619" gradientUnits="userSpaceOnUse" r="24.6243">
    <stop offset="0.0372" stop-color="#CA8E53"/>
    <stop offset="0.0671" stop-color="#C68B53"/>
    <stop offset="0.4" stop-color="#A37152"/>
    <stop offset="0.6717" stop-color="#8D6051"/>
    <stop offset="0.8468" stop-color="#855A51"/>
  </radialGradient>
  <path d="M30.13,17.97c0,0-6.31-2.14-10.74,0.91s-3.79,6.16-5.86,7.44s-4.24,1.72-7.29,2.32 s-2.02,3.72-2.02,3.72s-1.58,2.96-0.39,4.24c1.18,1.28,2.32,2.49,3.1,2.69c0.79,0.2,1.53,0.74,1.53,0.74s1.28,2.09,3.84,2.39 c2.56,0.3,9.76,0.1,9.76,0.1l0.99,2.37l4.83-0.2c0,0,3.84-11.92,4.04-12.52S30.13,17.97,30.13,17.97z" fill="url(#SVGID_2_)"/>
  <path d="M26.14,42.6c1.47-1.21,2.95-3.5,3.01-7.59c0.05-3.35-1.23-4.93-2.12-5.96 c-0.89-1.03-2.22-3.7-1.28-6.7s3.25-4.39,5.57-7s7.93-7.59,9.31-6.85c1.38,0.74,2.22,6.7,2.32,9.61c0.1,2.98,0.79,11.19-2.07,13.5 c-2.37,1.92-3.74,1.72-3.74,1.72s0.39,6.65,0.3,7.1c-0.1,0.44-2.37,2.46-3.25,3.25s-2.46,2.56-2.46,2.56s3.1,0,3.3,0.39 c0.2,0.39-2.27,3.3-4.29,5.76c-1.08,1.32-4.48,6.06-4.48,6.06s-2.56-10.66-3.1-12.61c-0.49-1.77-0.69-2.37-0.69-2.37 S24.76,43.74,26.14,42.6z" fill="#CD8C56"/>
  <ellipse cx="20.99" cy="28.47" fill="#010206" rx="2.14" ry="2.63"/>
  <path d="M4.31,35.46c0,0,2.02-1.08,2.07-3.35c0.03-1.53-0.15-3.55-0.15-3.55s-4.83,0.2-5.03,2.41 s0.76,4.04,1.33,4.88c0.74,1.08,2.37,4.09,6.75,4.83s8.62-0.64,8.62-0.64l-0.2-1.13c0,0-6.16,1.33-9.12,0.25S4.31,35.46,4.31,35.46z " fill="#464C52"/>
  <path d="M20.12,38.64c0.21,0.73-0.37,1.29-1.18,1.48c-0.81,0.18-1.81,0.22-1.92-0.44s0.74-1.33,1.37-1.52 C19.01,37.97,19.93,38.01,20.12,38.64z" fill="#010206"/>
  <path d="M39.18,13.91c-0.8-0.5-4.81,3.57-6.21,6.06c-1.52,2.7-0.63,5.36,0.96,6.36c1.59,1,3.81-0.4,4.62-2.44 C39.41,21.75,40.03,14.44,39.18,13.91z" fill="#FFA9AB"/>
  <path d="M49.84,51.72c0,0-23.31,6.11-23.6,6.75c-0.3,0.64,1.33,6.01,1.63,6.16s24.09-6.31,24.09-6.31 L49.84,51.72z" fill="#484C51"/>
  <path d="M61.86,41.37c4.06,0.24,20.67-0.47,18.23,0.84c-2.44,1.31-4.88,3.67-7.17,8.25 c-2.29,4.58-3.4,14.93-14.04,13.53c-10.64-1.4-11.01-13.67-9.83-17.29c1.18-3.62,2.71-6.48,2.71-6.48S55.65,41,61.86,41.37z" fill="#FF5F5C"/>
  <path d="M62.55,35.02c4.72,0.22,4.39,4.21,4.53,8.43s0.15,26.46,0.15,30.3c0,3.84-0.15,10.1-0.15,10.1 s-0.39,0.42-1.36,0.67c-0.83,0.21-1.4,0.17-1.4,0.17s0.37-8.08-0.59-9.85s-3.89-5.08-3.89-5.08l-0.15-28.38L57.77,41 C57.77,41,57.9,34.79,62.55,35.02z" fill="#484C51"/>
</svg>

<svg viewBox="0 0 128 128" xmlns="http://www.w3.org/2000/svg">
  <defs>
    <linearGradient id="SVGID_1_" gradientUnits="userSpaceOnUse" x1="76.048" x2="87.749" y1="85.85" y2="36.7709">
      <stop offset="0.2583" stop-color="#CA8E53"/>
      <stop offset="0.4555" stop-color="#A67352"/>
      <stop offset="0.6284" stop-color="#8E6151"/>
      <stop offset="0.7343" stop-color="#855A51"/>
    </linearGradient>
    <radialGradient id="SVGID_2_" cx="29.761" cy="14.5619" gradientUnits="userSpaceOnUse" r="24.6243">
      <stop offset="0.0372" stop-color="#CA8E53"/>
      <stop offset="0.0671" stop-color="#C68B53"/>
      <stop offset="0.4" stop-color="#A37152"/>
      <stop offset="0.6717" stop-color="#8D6051"/>
      <stop offset="0.8468" stop-color="#855A51"/>
    </radialGradient>
  </defs>
  <path d="M34.86,78.18 C34.86,78.18 35.6,105.23 33.68,107.89 C31.76,110.55 29.58,111.87 29.98,114.1 C30.28,115.73 31.51,115.78 35.79,115.78 C40.07,115.78 41.8,113.51 42.84,110.56 C43.87,107.6 44.27,103.81 44.71,98.93 C45.11,94.51 45.79,83.06 45.79,83.06 L34.86,78.18 Z" fill="#865A52"/>
  <path d="M78.02,74.78 C78.02,74.78 77.77,81.92 79.05,85.57 C80,88.26 82.6,94.59 82.01,98.28 C81.42,101.98 79.57,105.77 77.43,107.15 C76.05,108.04 75.46,110.4 76.05,111.39 C76.64,112.38 84.92,112.28 86.1,111.49 C87.28,110.7 91,101.51 91.62,98.97 C92.7,94.54 95.07,81.63 95.07,81.63 L91.33,69.11 L78.02,74.78 Z" fill="#865A52"/>
  <path d="M41.96,36.79 L30.43,41.82 L26.09,57.83 C26.09,57.83 28.46,66.06 29.83,69.9 C30.73,72.4 32.15,79.16 38.6,83.7 C44.66,87.96 53.09,87.74 53.09,87.74 C53.09,87.74 53.66,90.1 53.78,98.09 C53.91,106.91 54.14,111.68 53.58,112.38 C52.76,113.42 49.54,117.8 50.62,119.28 C51.7,120.76 54.76,121.05 57.03,120.76 C59.3,120.47 61.37,119.18 61.86,118.49 C62.35,117.8 63.6,103.42 63.83,99.67 C64.08,95.58 64.13,89.72 64.22,87.45 C64.28,86.07 64.32,84.69 64.32,84.69 C64.32,84.69 67.5,83.75 71.32,81.44 C74.41,79.56 77.53,77.1 80.58,76.22 C83.63,75.33 86.79,74.64 86.79,74.64 C86.79,74.64 90.29,81.88 93.44,85.53 C96.59,89.18 103.74,96.72 104.23,98.59 C104.72,100.46 105.81,107.16 104.72,109.82 C103.64,112.48 101.96,114.85 103.04,116.03 C104.12,117.21 109.79,117.16 111.47,115.69 C113.15,114.21 114.38,109.53 114.28,105.59 C114.18,101.65 113.2,94.16 112.6,92.09 C112,90.02 111.61,80.56 111.61,80.56 L108.85,59.18 L104.12,51.59 L82.05,50.9 L50.61,48.73 L41.96,36.79 Z" fill="#F1A058"/>
  <path d="M111.58,19.27 L75.66,35.16 L77.65,40.19 L114.58,24.37 Z" fill="#02BFF1"/>
  <path d="M69.94,43.98 C71.81,42.21 71.52,40.83 72.01,40.43 C72.5,40.04 73.54,41.81 75.46,41.07 C76.67,40.61 77.58,39.25 76.74,37.23 C76.36,36.32 75.11,35.16 73.64,35.65 C71.24,36.45 71.72,38.26 71.13,38.56 C70.54,38.86 68.76,36.79 66.1,38.46 C64.26,39.62 66.3,44.47 66.3,44.47 L69.94,43.98 Z" fill="#BDBDBF"/>
  <path d="M24.71,18.56 C24.71,18.56 27.66,6.83 29.64,6.73 C31.61,6.63 32.79,13.04 34.17,18.56 C34.89,21.45 24.71,18.56 24.71,18.56 Z" fill="#875A51"/>
  <path d="M64.33,77.74 C64.33,77.74 72.52,74.24 76.35,70.99 C80.88,67.15 86.11,57.78 92.91,54.93 C97.18,53.14 100.89,52.37 101.78,52.76 C102.67,53.15 106.31,55.81 107.2,60.15 C108.09,64.49 107.79,77.2 107.99,80.45 C108.19,83.7 109.81,90.7 112.87,92.82 C114.96,94.27 119.13,95.73 122.58,95.53 C126.03,95.33 127.31,95.14 127.31,94.74 C127.31,94.35 124.45,92.62 121.5,89.42 C117.95,85.58 115.19,74.19 114.11,69.17 C113.03,64.14 108.79,54.14 103.66,49.21 C98.53,44.28 88.39,42.41 80.11,42.21 C74.77,42.08 60.89,45.17 60.89,45.17 L51.73,41.13 C51.73,41.13 49.76,37.09 47.3,33.15 C44.84,29.21 41.78,24.97 41.78,24.97 L35.77,31.47 C35.77,31.47 36.95,38.27 37.54,40.73 C38.13,43.19 39.12,48.12 41.58,51.57 C44.04,55.02 45.62,57.88 45.62,57.88 L27.88,64.09 L28.67,66.46 C28.67,66.46 37.54,64.14 40.79,63.41 C43.59,62.77 49.12,60.95 50,61.14 C50.89,61.34 53.25,62.95 54.93,64.59 C57.2,66.81 61.59,71.87 62.57,73.02 C64.28,75.03 64.33,77.74 64.33,77.74 Z" fill="url(#SVGID_1_)"/>
  <path d="M30.13,17.97 C30.13,17.97 23.82,15.83 19.39,18.88 C14.96,21.93 15.6,25.04 13.53,26.32 C11.46,27.6 9.29,28.04 6.24,28.64 C3.19,29.24 4.22,32.36 4.22,32.36 C4.22,32.36 2.64,35.32 3.83,36.6 C5.01,37.88 6.15,39.09 6.93,39.29 C7.72,39.49 8.46,40.03 8.46,40.03 C8.46,40.03 9.74,42.12 12.3,42.42 C14.86,42.72 22.06,42.52 22.06,42.52 L23.05,44.89 L27.88,44.69 C27.88,44.69 31.72,32.77 31.92,32.17 C32.12,31.57 30.13,17.97 30.13,17.97 Z" fill="url(#SVGID_2_)"/>
  <path d="M26.14,42.6 C27.61,41.39 29.09,39.1 29.15,35.01 C29.2,31.66 27.92,30.08 27.03,29.05 C26.14,28.02 24.81,25.35 25.75,22.35 C26.69,19.35 29,17.96 31.32,15.35 C33.64,12.74 39.25,7.76 40.63,8.5 C42.01,9.24 42.85,15.2 42.95,18.11 C43.05,21.09 43.74,29.3 40.88,31.61 C38.51,33.53 37.14,33.33 37.14,33.33 C37.14,33.33 37.53,39.98 37.44,40.43 C37.34,40.87 35.07,42.89 34.19,43.68 C33.31,44.47 31.73,46.24 31.73,46.24 C31.73,46.24 34.83,46.24 35.03,46.63 C35.23,47.02 32.76,49.93 30.74,52.39 C29.66,53.71 26.26,58.45 26.26,58.45 C26.26,58.45 23.7,47.79 23.16,45.84 C22.67,44.07 22.47,43.47 22.47,43.47 C22.47,43.47 24.76,43.74 26.14,42.6 Z" fill="#CD8C56"/>
  <path d="M23.13,28.47 A2.14 2.63 0 1 1 18.85,28.47 A2.14 2.63 0 1 1 23.13,28.47 Z" fill="#010206"/>
  <path d="M4.31,35.46 C4.31,35.46 6.33,34.38 6.38,32.11 C6.41,30.58 6.23,28.56 6.23,28.56 C6.23,28.56 1.4,28.76 1.2,30.97 C1,33.18 1.96,35.01 2.53,35.85 C3.27,36.93 4.9,39.94 9.28,40.68 C13.66,41.42 17.9,40.04 17.9,40.04 L17.7,38.91 C17.7,38.91 11.54,40.24 8.58,39.16 C5.62,38.08 4.31,35.46 4.31,35.46 Z" fill="#464C52"/>
  <path d="M20.12,38.64 C20.33,39.37 19.75,39.93 18.94,40.12 C18.13,40.3 17.13,40.34 17.02,39.68 C16.91,39.02 17.76,38.35 18.39,38.16 C19.01,37.97 19.93,38.01 20.12,38.64 Z" fill="#010206"/>
  <path d="M39.18,13.91 C38.38,13.41 34.37,17.48 32.97,19.97 C31.45,22.67 32.34,25.33 33.93,26.33 C35.52,27.33 37.74,25.93 38.55,23.89 C39.41,21.75 40.03,14.44 39.18,13.91 Z" fill="#FFA9AB"/>
  <path d="M49.84,51.72 C49.84,51.72 26.53,57.83 26.24,58.47 C25.94,59.11 27.57,64.48 27.87,64.63 C28.17,64.78 51.96,58.32 51.96,58.32 L49.84,51.72 Z" fill="#484C51"/>
  <path d="M61.86,41.37 C65.92,41.61 82.53,40.9 80.09,42.21 C77.65,43.52 75.21,45.88 72.92,50.46 C70.63,55.04 69.52,65.39 58.88,63.99 C48.24,62.59 47.87,50.32 49.05,46.7 C50.23,43.08 51.76,40.22 51.76,40.22 C51.76,40.22 55.65,41 61.86,41.37 Z" fill="#FF5F5C"/>
  <path d="M62.55,35.02 C67.27,35.24 66.94,39.23 67.08,43.45 C67.22,47.67 67.23,69.91 67.23,73.75 C67.23,77.59 67.08,83.85 67.08,83.85 C67.08,83.85 66.69,84.27 65.72,84.52 C64.89,84.73 64.32,84.69 64.32,84.69 C64.32,84.69 64.69,76.61 63.73,74.84 C62.77,73.07 59.84,69.76 59.84,69.76 L59.69,41.38 L57.77,41 C57.77,41 57.9,34.79 62.55,35.02 Z" fill="#484C51"/>
</svg>
